X:3023
T:Skogssangen
C:anon.
O:Norway?
R:Nursery song
Z:Transcribed by Frank Nordberg - http://www.musicaviva.com
F:http://abc.musicaviva.com/tunes/norway/skogssangen/skogssangen-1.abc
M:C
L:1/8
K:C
CDEF G2AF|E2D2C4|CDEF G2AF|E2D2C4|
GFEGFED2|GFEGFED2|CDEF G2AF|E2D2C4|]
W:
W:
W:  From Musica Viva - http://www.musicaviva.com
W:  the Internet center for free sheet music downloads.

